!!!COM: Scriabin, Alexander
!!!OTL: Prelude
!!!OPR: 4 Preludes
!!!OPS: 48
!!!ONM: 3
!!!ODT: 1905
!!!AGN: Prelude
**kern	**kern
*staff2	*staff1
*Ipiano	*Ipiano
*clefF4	*clefG2
*k[b-e-a-d-g-]	*k[b-e-a-d-g-]
*D-:	*D-:
*M3/4	*M3/4
=1	=1
*	*^
8cL	12e-L	12rc
.	12dn	[6d
8G-J	.	.
.	[12b-J	.
8AA-L	12b-L]	4d_
.	12g-	.
8AA-J	.	.
.	12fJ	.
8AAA-	12B-L	12d]
.	12.e-	6e-
8r	.	.
.	24b-Jk	.
=2	=2	=2
8cL	12b--L	12f
.	24cL	12rc
8G-J	24f	.
.	24b--	12rc
.	24b--JJ	.
8AA-L	24ffLL	4rc
.	24b--	.
.	24b--	.
8AA-J	24fJ	.
.	12cJ	.
8AAA-	4raa	4rc
8r	.	.
=3	=3	=3
8cL	12anL	2en
.	12g#X	.
8F#XJ	.	.
.	[12eenJ	.
8CL	12eeL]	.
.	12cc	.
8DDnJ	.	.
.	12bnJ	.
8DDDn	[4e	4rc
8r	.	.
=4	=4	=4
8cL	4e]	4rc
8G-J	.	.
8AA-XL	8fn	[8f
8AA-J	4b-X	4.f]
8AAA-	.	.
8r	8b--	.
=5	=5	=5
8fL	12a-L	12rc
.	12gn	[6g
8c-XJ	.	.
.	[12ee-J	.
8FL	12ee-L]	4g_
.	12cc-X	.
8D-J	.	.
.	12b-XJ	.
8DD-	12e-L	12g]
.	12.a-	6a-
8r	.	.
.	24ee-Jk	.
=6	=6	=6
8fL	12ee--L	8b-
.	24fL	.
8B-J	24b-	8rc
.	24ee--	.
.	24ee--JJ	.
8FL	24bb-LL	4rc
.	24ee--	.
.	24ee--	.
8C-XJ	24b-J	.
.	12fJ	.
8CC-X	4raa	4rc
8r	.	.
*	*v	*v
=7	=7
8enL	12cc#XL
.	12b#X
8G#XJ	.
.	[12gg#XJ
8AA#XL	12gg#L]
.	12g#X
8c#XJ	.
.	12cc#J
8F##XL	12eenL
.	12f##X
8AAnJ	.
.	12dd#XJ
=8	=8
8dnL	12r
.	12bnL
8F#XJ	.
.	12a#XJ
8GG#XL	12ff#XL
.	12f#X
8BnJ	.
.	12bJ
8E#XL	12ddnL
.	12e#X
8GGnJ	.
.	12cc#XJ
=9	=9
8AnL	12r
.	12anL
8DnJ	.
.	12g#XJ
8FF#XL	12ddnL
.	12dn
8AJ	.
.	12aJ
8F#XL	12cc#XL
.	12d#X
8GG#XJ	.
.	12b#XJ
=10	=10
8G#XL	12dd#XL
.	12e#X
8E#XJ	.
.	12ddnJ
8GG#XL	12g#XL
.	12cc#X
8CC#XJ	.
.	12c#XJ
4r	12anL
.	12e#
.	12g#J
=11	=11
*	*^
8fL	12a-XL	12rc
.	12gn	[6g
8c-XJ	.	.
.	[12ee-XJ	.
8D-XL	12ee-L]	4g_
.	12cc-X	.
8D-J	.	.
.	12b-J	.
8DD-	12e-L	12g]
.	12.a-	6a-
8r	.	.
.	24ee-Jk	.
=12	=12	=12
8fL	12ee--L	8b-
.	24fL	.
8c-XJ	24b-	8rc
.	24ee--	.
.	24ee--JJ	.
8D-L	24bb-LL	4rc
.	24ee--	.
.	24ee--	.
8D-J	24b-J	.
.	12fJ	.
8DD-	4raa	4rc
8r	.	.
=13	=13	=13
8e-XL	12g-L	12rc
.	12f	[6f
8B--J	.	.
.	[12dd-J	.
8D-L	12dd-L]	4f_
.	12b--	.
8D-J	.	.
.	12a-J	.
8DD-	12d-L	12f]
.	12.g-	6g-
8r	.	.
.	24dd-Jk	.
=14	=14	=14
8e-L	12ccL	12a-
.	24e-L	12rc
8B--J	24a-	.
.	24cc	12rc
.	24ccJJ	.
8D-L	24aa-LL	4rc
.	24cc	.
.	24cc	.
8D-J	24a-J	.
.	12e-J	.
8DD-	4raa	4rc
8r	.	.
=15	=15	=15
8cL	12e-L	12rc
.	12dn	[6dn
8GJ	.	.
.	[12b-XJ	.
8D-XL	12b-L]	4d_
.	12g	.
8D-J	.	.
.	12fJ	.
8DD-	12B-L	12dn]
.	12.e-	6e-
8r	.	.
.	24b-J	.
=16	=16	=16
8cL	12b--L	12f
.	24cL	12rc
8G-J	24f	.
.	24b--	12rc
.	24b--JJ	.
8D-L	24ffLL	4rc
.	24b--	.
.	24b--	.
8D-J	24fJ	.
.	12cJ	.
8DD-	4raa	4rc
8r	.	.
=17	=17	=17
8d-L	4raa	4rc
8FJ	.	.
8D-L	4b--	2f
8D-J	.	.
8DD-	4a-	.
8r	.	.
*	*v	*v
=18	=18
8cL	12r
.	24cLL
8G-J	24f
.	24b--
.	24b--JJ
8D-L	24ffLL
.	24b--
.	24b--
8D-J	24fJ
.	12cJ
8DD-	4r
8r	.
=19	=19
*	*^
8d-L	4raa	4rc
8FJ	.	.
8D-L	4b--	2f
8D-J	.	.
8DD-	4a-	.
8r	.	.
*	*v	*v
=20	=20
8cL	12r
.	24cLL
8G-J	24f
.	24b--
.	24b--JJ
8D-L	24ffLL
.	24b--
.	24b--
8D-J	24fJ
.	12cJ
8DD-	4r
8r	.
=21	=21
8cL	12r
.	24cLL
8G-J	24f
.	24b--
.	24ccJJ
8D-L	24bb--LL
.	24cc
.	24b--
8D-J	24fJ
.	12cJ
8DD-	4r
8r	.
=22	=22
8cL	12r
.	24cLL
8G-J	24f
.	36b--
.	36cc
.	36ffJJ
8D-L	24cccLL
.	24ff
.	24cc
8D-J	24b--
.	24f
.	24cJJ
8DD-	4r
8r	.
=23	=23
.	8qqr
.	[16qqd-/LL
.	[16qqf/
[16qqd-/LL	[16qqa-/
[16qqF/	[16qqdd-/
[16qqD-/	[16qqff/
[16qqAA-/JJ	[16qqaa-/JJ
4DD- 4AA-] 4D-] 4F] 4d-]	4d-] 4f] 4a-] 4dd-] 4ff] 4aa-] 4fff
4r	4r
4r	4r
==	==
*-	*-
!!!system-decoration: {(*)}
!!!ENC: Bryan Jacob Bell
!!!END: November 2021 to April 2022
!!!PED: Günter Philipp
!!!PTL: Ausgewählte Klavierwerke (Edition Peters)
